Hatter-kde/actions/16/insert-more-mark.svg

<?xml version="1.0" encoding="UTF-8"?>
<svg viewBox="0 0 16 16" xmlns="http://www.w3.org/2000/svg">
 <defs id="defs3051">
  <style id="current-color-scheme" type="text/css">.ColorScheme-Text {
        color:#363636;
      }
      .ColorScheme-Highlight {
        color:#3daee9;
      }</style>
 </defs>
 <path class="ColorScheme-Text" d="m2 2v1h12v-1h-12zm0 2v1h7v-1h-7zm0 6v1h12v-1h-12zm0 2v1h8v-1h-8zm10 1v1h2v-1h-2z" fill="currentColor"/>
 <path class="ColorScheme-Highlight" d="m2 7h12v1h-12z" fill="currentColor"/>
</svg>

<svg xmlns="http://www.w3.org/2000/svg" viewBox="0 0 16 16">
  <defs id="defs3051">
    <style type="text/css" id="current-color-scheme">
      .ColorScheme-Text {
        color:#363636;
      }
      .ColorScheme-Highlight {
        color:#3daee9;
      }
      </style>
  </defs>
  <path 
        style="fill:currentColor;fill-opacity:1;stroke:none"
        d="M 2,2 2,3 14,3 14,2 2,2 Z M 2,4 2,5 9,5 9,4 2,4 Z m 0,6 0,1 12,0 0,-1 -12,0 z m 0,2 0,1 8,0 0,-1 -8,0 z m 10,1 0,1 2,0 0,-1 -2,0 z"
        class="ColorScheme-Text"
        />
  <path 
        style="fill:currentColor;fill-opacity:1;stroke:none"
        d="M 2,7 14,7 14,8 2,8 Z"
        class="ColorScheme-Highlight"
        />
</svg>
